images/50917906.svg

<?xml version="1.0" encoding="UTF-8"?>
<svg xmlns="http://www.w3.org/2000/svg" xmlns:xlink="http://www.w3.org/1999/xlink" width="300pt" height="300pt" viewBox="0 0 300 300" version="1.1">
<defs>
<g>
<symbol overflow="visible" id="glyph0-0">
<path style="stroke:none;" d="M 0.546875 1.9375 L 0.546875 -7.75 L 6.046875 -7.75 L 6.046875 1.9375 Z M 1.171875 1.328125 L 5.4375 1.328125 L 5.4375 -7.140625 L 1.171875 -7.140625 Z M 1.171875 1.328125 "/>
</symbol>
<symbol overflow="visible" id="glyph0-1">
<path style="stroke:none;" d="M 1.078125 -8.015625 L 5.6875 -8.015625 L 5.6875 -7.109375 L 2.171875 -7.109375 L 2.171875 -4.75 L 5.34375 -4.75 L 5.34375 -3.828125 L 2.171875 -3.828125 L 2.171875 0 L 1.078125 0 Z M 1.078125 -8.015625 "/>
</symbol>
<symbol overflow="visible" id="glyph0-2">
<path style="stroke:none;" d="M 1.078125 -8.015625 L 2.546875 -8.015625 L 6.09375 -1.3125 L 6.09375 -8.015625 L 7.15625 -8.015625 L 7.15625 0 L 5.6875 0 L 2.125 -6.703125 L 2.125 0 L 1.078125 0 Z M 1.078125 -8.015625 "/>
</symbol>
<symbol overflow="visible" id="glyph0-3">
<path style="stroke:none;" d="M 1.078125 -8.015625 L 2.171875 -8.015625 L 2.171875 -4.734375 L 6.109375 -4.734375 L 6.109375 -8.015625 L 7.1875 -8.015625 L 7.1875 0 L 6.109375 0 L 6.109375 -3.8125 L 2.171875 -3.8125 L 2.171875 0 L 1.078125 0 Z M 1.078125 -8.015625 "/>
</symbol>
</g>
</defs>
<g id="surface9609">
<rect x="0" y="0" width="300" height="300" style="fill:rgb(100%,100%,100%);fill-opacity:1;stroke:none;"/>
<path style="fill:none;stroke-width:1.2;stroke-linecap:butt;stroke-linejoin:miter;stroke:rgb(20%,80%,80%);stroke-opacity:1;stroke-miterlimit:10;" d="M 61.042969 103.113281 L 61.589844 116.554688 "/>
<path style="fill:none;stroke-width:1.2;stroke-linecap:butt;stroke-linejoin:miter;stroke:rgb(0%,0%,0%);stroke-opacity:1;stroke-miterlimit:10;" d="M 61.589844 116.554688 L 62.136719 130 "/>
<path style=" stroke:none;fill-rule:nonzero;fill:rgb(100%,100%,100%);fill-opacity:1;" d="M 58.042969 96.613281 L 65.042969 96.613281 L 65.042969 109.613281 L 58.042969 109.613281 Z M 58.042969 96.613281 "/>
<g style="fill:rgb(20%,80%,80%);fill-opacity:1;">
  <use xlink:href="#glyph0-1" x="58.042969" y="106.514648"/>
</g>
<path style="fill:none;stroke-width:1.2;stroke-linecap:butt;stroke-linejoin:miter;stroke:rgb(0%,0%,0%);stroke-opacity:1;stroke-miterlimit:10;" d="M 62.136719 130 L 62.6875 143.445312 "/>
<path style="fill:none;stroke-width:1.2;stroke-linecap:butt;stroke-linejoin:miter;stroke:rgb(20%,80%,80%);stroke-opacity:1;stroke-miterlimit:10;" d="M 62.6875 143.445312 L 63.234375 156.886719 "/>
<path style="fill:none;stroke-width:1.2;stroke-linecap:butt;stroke-linejoin:miter;stroke:rgb(0%,0%,0%);stroke-opacity:1;stroke-miterlimit:10;" d="M 62.136719 130 L 48.695312 130.546875 "/>
<path style="fill:none;stroke-width:1.2;stroke-linecap:butt;stroke-linejoin:miter;stroke:rgb(20%,80%,80%);stroke-opacity:1;stroke-miterlimit:10;" d="M 48.695312 130.546875 L 35.25 131.09375 "/>
<path style="fill:none;stroke-width:1.2;stroke-linecap:butt;stroke-linejoin:miter;stroke:rgb(0%,0%,0%);stroke-opacity:1;stroke-miterlimit:10;" d="M 62.136719 130 L 89.027344 128.90625 "/>
<path style=" stroke:none;fill-rule:nonzero;fill:rgb(100%,100%,100%);fill-opacity:1;" d="M 60.234375 150.386719 L 67.234375 150.386719 L 67.234375 163.386719 L 60.234375 163.386719 Z M 60.234375 150.386719 "/>
<g style="fill:rgb(20%,80%,80%);fill-opacity:1;">
  <use xlink:href="#glyph0-1" x="60.234375" y="160.288086"/>
</g>
<path style=" stroke:none;fill-rule:nonzero;fill:rgb(100%,100%,100%);fill-opacity:1;" d="M 28.25 124.59375 L 35.25 124.59375 L 35.25 137.59375 L 28.25 137.59375 Z M 28.25 124.59375 "/>
<g style="fill:rgb(20%,80%,80%);fill-opacity:1;">
  <use xlink:href="#glyph0-1" x="28.25" y="134.495117"/>
</g>
<path style="fill:none;stroke-width:1.2;stroke-linecap:butt;stroke-linejoin:miter;stroke:rgb(0%,0%,0%);stroke-opacity:1;stroke-miterlimit:10;" d="M 89.027344 128.90625 L 96.222656 140.273438 "/>
<path style="fill:none;stroke-width:1.2;stroke-linecap:butt;stroke-linejoin:miter;stroke:rgb(0%,0%,100%);stroke-opacity:1;stroke-miterlimit:10;" d="M 96.222656 140.273438 L 103.417969 151.644531 "/>
<path style="fill:none;stroke-width:1.2;stroke-linecap:butt;stroke-linejoin:miter;stroke:rgb(0%,0%,0%);stroke-opacity:1;stroke-miterlimit:10;" d="M 95.816406 127.792969 L 101.574219 136.886719 "/>
<path style="fill:none;stroke-width:1.2;stroke-linecap:butt;stroke-linejoin:miter;stroke:rgb(0%,0%,100%);stroke-opacity:1;stroke-miterlimit:10;" d="M 101.574219 136.886719 L 107.332031 145.984375 "/>
<path style="fill:none;stroke-width:1.2;stroke-linecap:butt;stroke-linejoin:miter;stroke:rgb(0%,0%,100%);stroke-opacity:1;stroke-miterlimit:10;" d="M 101.523438 105.070312 L 95.273438 116.988281 "/>
<path style="fill:none;stroke-width:1.2;stroke-linecap:butt;stroke-linejoin:miter;stroke:rgb(0%,0%,0%);stroke-opacity:1;stroke-miterlimit:10;" d="M 95.273438 116.988281 L 89.027344 128.90625 "/>
<path style="fill:none;stroke-width:1.2;stroke-linecap:butt;stroke-linejoin:miter;stroke:rgb(0%,0%,100%);stroke-opacity:1;stroke-miterlimit:10;" d="M 103.417969 151.644531 L 116.863281 151.09375 "/>
<path style="fill:none;stroke-width:1.2;stroke-linecap:butt;stroke-linejoin:miter;stroke:rgb(0%,0%,0%);stroke-opacity:1;stroke-miterlimit:10;" d="M 116.863281 151.09375 L 130.308594 150.546875 "/>
<path style=" stroke:none;fill-rule:nonzero;fill:rgb(100%,100%,100%);fill-opacity:1;" d="M 99.417969 145.144531 L 107.417969 145.144531 L 107.417969 158.144531 L 99.417969 158.144531 Z M 99.417969 145.144531 "/>
<g style="fill:rgb(0%,0%,100%);fill-opacity:1;">
  <use xlink:href="#glyph0-2" x="99.417969" y="155.045898"/>
</g>
<path style="fill:none;stroke-width:1.2;stroke-linecap:butt;stroke-linejoin:miter;stroke:rgb(0%,0%,0%);stroke-opacity:1;stroke-miterlimit:10;" d="M 130.308594 150.546875 L 137.503906 161.917969 "/>
<path style="fill:none;stroke-width:1.2;stroke-linecap:butt;stroke-linejoin:miter;stroke:rgb(0%,0%,100%);stroke-opacity:1;stroke-miterlimit:10;" d="M 137.503906 161.917969 L 144.699219 173.285156 "/>
<path style="fill:none;stroke-width:1.2;stroke-linecap:butt;stroke-linejoin:miter;stroke:rgb(0%,0%,0%);stroke-opacity:1;stroke-miterlimit:10;" d="M 130.308594 150.546875 L 142.804688 126.714844 "/>
<path style="fill:none;stroke-width:1.2;stroke-linecap:butt;stroke-linejoin:miter;stroke:rgb(0%,0%,0%);stroke-opacity:1;stroke-miterlimit:10;" d="M 125.949219 145.222656 L 135.945312 126.15625 "/>
<path style="fill:none;stroke-width:1.2;stroke-linecap:butt;stroke-linejoin:miter;stroke:rgb(0%,0%,100%);stroke-opacity:1;stroke-miterlimit:10;" d="M 144.699219 173.285156 L 138.453125 185.203125 "/>
<path style="fill:none;stroke-width:1.2;stroke-linecap:butt;stroke-linejoin:miter;stroke:rgb(0%,0%,0%);stroke-opacity:1;stroke-miterlimit:10;" d="M 138.453125 185.203125 L 132.207031 197.121094 "/>
<path style=" stroke:none;fill-rule:nonzero;fill:rgb(100%,100%,100%);fill-opacity:1;" d="M 136.699219 166.785156 L 153.699219 166.785156 L 153.699219 179.785156 L 136.699219 179.785156 Z M 136.699219 166.785156 "/>
<g style="fill:rgb(0%,0%,100%);fill-opacity:1;">
  <use xlink:href="#glyph0-2" x="136.699219" y="176.686523"/>
  <use xlink:href="#glyph0-3" x="144.682617" y="176.686523"/>
</g>
<path style="fill:none;stroke-width:1.2;stroke-linecap:butt;stroke-linejoin:miter;stroke:rgb(0%,0%,0%);stroke-opacity:1;stroke-miterlimit:10;" d="M 132.207031 197.121094 L 119.710938 220.953125 "/>
<path style="fill:none;stroke-width:1.2;stroke-linecap:butt;stroke-linejoin:miter;stroke:rgb(0%,0%,0%);stroke-opacity:1;stroke-miterlimit:10;" d="M 132.207031 197.121094 L 156.039062 209.617188 "/>
<path style="fill:none;stroke-width:1.2;stroke-linecap:butt;stroke-linejoin:miter;stroke:rgb(0%,0%,0%);stroke-opacity:1;stroke-miterlimit:10;" d="M 132.207031 197.121094 L 108.371094 184.625 "/>
<path style="fill:none;stroke-width:1.2;stroke-linecap:butt;stroke-linejoin:miter;stroke:rgb(0%,0%,0%);stroke-opacity:1;stroke-miterlimit:10;" d="M 142.804688 126.714844 L 169.691406 125.617188 "/>
<path style="fill:none;stroke-width:1.2;stroke-linecap:butt;stroke-linejoin:miter;stroke:rgb(0%,0%,0%);stroke-opacity:1;stroke-miterlimit:10;" d="M 128.410156 103.976562 L 142.804688 126.714844 "/>
<path style="fill:none;stroke-width:1.2;stroke-linecap:butt;stroke-linejoin:miter;stroke:rgb(0%,0%,0%);stroke-opacity:1;stroke-miterlimit:10;" d="M 169.691406 125.617188 L 182.1875 101.785156 "/>
<path style="fill:none;stroke-width:1.2;stroke-linecap:butt;stroke-linejoin:miter;stroke:rgb(0%,0%,0%);stroke-opacity:1;stroke-miterlimit:10;" d="M 165.332031 120.296875 L 175.328125 101.226562 "/>
<path style="fill:none;stroke-width:1.2;stroke-linecap:butt;stroke-linejoin:miter;stroke:rgb(0%,0%,0%);stroke-opacity:1;stroke-miterlimit:10;" d="M 182.1875 101.785156 L 195.632812 101.238281 "/>
<path style="fill:none;stroke-width:1.2;stroke-linecap:butt;stroke-linejoin:miter;stroke:rgb(0%,0%,100%);stroke-opacity:1;stroke-miterlimit:10;" d="M 195.632812 101.238281 L 209.074219 100.6875 "/>
<path style="fill:none;stroke-width:1.2;stroke-linecap:butt;stroke-linejoin:miter;stroke:rgb(0%,0%,0%);stroke-opacity:1;stroke-miterlimit:10;" d="M 182.1875 101.785156 L 167.792969 79.046875 "/>
<path style="fill:none;stroke-width:1.2;stroke-linecap:butt;stroke-linejoin:miter;stroke:rgb(0%,0%,100%);stroke-opacity:1;stroke-miterlimit:10;" d="M 209.074219 100.6875 L 216.273438 112.058594 "/>
<path style="fill:none;stroke-width:1.2;stroke-linecap:butt;stroke-linejoin:miter;stroke:rgb(0%,0%,0%);stroke-opacity:1;stroke-miterlimit:10;" d="M 216.273438 112.058594 L 223.46875 123.425781 "/>
<path style=" stroke:none;fill-rule:nonzero;fill:rgb(100%,100%,100%);fill-opacity:1;" d="M 201.074219 94.1875 L 218.074219 94.1875 L 218.074219 107.1875 L 201.074219 107.1875 Z M 201.074219 94.1875 "/>
<g style="fill:rgb(0%,0%,100%);fill-opacity:1;">
  <use xlink:href="#glyph0-2" x="201.074219" y="104.088867"/>
  <use xlink:href="#glyph0-3" x="209.057617" y="104.088867"/>
</g>
<path style="fill:none;stroke-width:1.2;stroke-linecap:butt;stroke-linejoin:miter;stroke:rgb(0%,0%,0%);stroke-opacity:1;stroke-miterlimit:10;" d="M 223.46875 123.425781 L 210.972656 147.261719 "/>
<path style="fill:none;stroke-width:1.2;stroke-linecap:butt;stroke-linejoin:miter;stroke:rgb(0%,0%,0%);stroke-opacity:1;stroke-miterlimit:10;" d="M 227.828125 128.75 L 217.832031 147.816406 "/>
<path style="fill:none;stroke-width:1.2;stroke-linecap:butt;stroke-linejoin:miter;stroke:rgb(0%,0%,0%);stroke-opacity:1;stroke-miterlimit:10;" d="M 250.355469 122.332031 L 223.46875 123.425781 "/>
<path style="fill:none;stroke-width:1.2;stroke-linecap:butt;stroke-linejoin:miter;stroke:rgb(0%,0%,0%);stroke-opacity:1;stroke-miterlimit:10;" d="M 210.972656 147.261719 L 225.367188 170 "/>
<path style="fill:none;stroke-width:1.2;stroke-linecap:butt;stroke-linejoin:miter;stroke:rgb(0%,0%,0%);stroke-opacity:1;stroke-miterlimit:10;" d="M 225.367188 170 L 252.253906 168.90625 "/>
<path style="fill:none;stroke-width:1.2;stroke-linecap:butt;stroke-linejoin:miter;stroke:rgb(0%,0%,0%);stroke-opacity:1;stroke-miterlimit:10;" d="M 227.796875 163.5625 L 249.308594 162.6875 "/>
<path style="fill:none;stroke-width:1.2;stroke-linecap:butt;stroke-linejoin:miter;stroke:rgb(0%,0%,0%);stroke-opacity:1;stroke-miterlimit:10;" d="M 252.253906 168.90625 L 264.75 145.070312 "/>
<path style="fill:none;stroke-width:1.2;stroke-linecap:butt;stroke-linejoin:miter;stroke:rgb(0%,0%,0%);stroke-opacity:1;stroke-miterlimit:10;" d="M 264.75 145.070312 L 250.355469 122.332031 "/>
<path style="fill:none;stroke-width:1.2;stroke-linecap:butt;stroke-linejoin:miter;stroke:rgb(0%,0%,0%);stroke-opacity:1;stroke-miterlimit:10;" d="M 257.960938 146.183594 L 246.445312 127.992188 "/>
<path style="fill:none;stroke-width:1.2;stroke-linecap:butt;stroke-linejoin:miter;stroke:rgb(0%,0%,0%);stroke-opacity:1;stroke-miterlimit:10;" d="M 167.792969 79.046875 L 140.90625 80.140625 "/>
<path style="fill:none;stroke-width:1.2;stroke-linecap:butt;stroke-linejoin:miter;stroke:rgb(0%,0%,0%);stroke-opacity:1;stroke-miterlimit:10;" d="M 165.363281 85.484375 L 143.851562 86.359375 "/>
<path style="fill:none;stroke-width:1.2;stroke-linecap:butt;stroke-linejoin:miter;stroke:rgb(0%,0%,0%);stroke-opacity:1;stroke-miterlimit:10;" d="M 140.90625 80.140625 L 128.410156 103.976562 "/>
<path style="fill:none;stroke-width:1.2;stroke-linecap:butt;stroke-linejoin:miter;stroke:rgb(0%,0%,0%);stroke-opacity:1;stroke-miterlimit:10;" d="M 128.410156 103.976562 L 114.964844 104.523438 "/>
<path style="fill:none;stroke-width:1.2;stroke-linecap:butt;stroke-linejoin:miter;stroke:rgb(0%,0%,100%);stroke-opacity:1;stroke-miterlimit:10;" d="M 114.964844 104.523438 L 101.523438 105.070312 "/>
<path style="fill:none;stroke-width:1.2;stroke-linecap:butt;stroke-linejoin:miter;stroke:rgb(0%,0%,0%);stroke-opacity:1;stroke-miterlimit:10;" d="M 125.980469 110.410156 L 115.222656 110.851562 "/>
<path style="fill:none;stroke-width:1.2;stroke-linecap:butt;stroke-linejoin:miter;stroke:rgb(0%,0%,100%);stroke-opacity:1;stroke-miterlimit:10;" d="M 115.222656 110.851562 L 104.46875 111.289062 "/>
<path style=" stroke:none;fill-rule:nonzero;fill:rgb(100%,100%,100%);fill-opacity:1;" d="M 97.523438 98.570312 L 105.523438 98.570312 L 105.523438 111.570312 L 97.523438 111.570312 Z M 97.523438 98.570312 "/>
<g style="fill:rgb(0%,0%,100%);fill-opacity:1;">
  <use xlink:href="#glyph0-2" x="97.523438" y="108.47168"/>
</g>
</g>
</svg>

<svg xmlns="http://www.w3.org/2000/svg" xmlns:xlink="http://www.w3.org/1999/xlink" width="300pt" height="300pt" viewBox="0 0 300 300"><defs><symbol overflow="visible"><path d="M.547 1.938V-7.75h5.5v9.688zm.625-.61h4.266v-8.47H1.171zm0 0"/></symbol><symbol overflow="visible" id="a"><path d="M1.078-8.016h4.61v.907H2.171v2.36h3.172v.922H2.172V0H1.078zm0 0"/></symbol><symbol overflow="visible" id="b"><path d="M1.078-8.016h1.47l3.546 6.704v-6.704h1.062V0H5.688L2.124-6.703V0H1.078zm0 0"/></symbol><symbol overflow="visible" id="c"><path d="M1.078-8.016h1.094v3.282H6.11v-3.282h1.077V0H6.11v-3.813H2.17V0H1.078zm0 0"/></symbol></defs><g><path fill="#fff" d="M0 0h300v300H0z"/><path d="M61.043 103.113l.547 13.442" stroke-width="1.2" stroke="#3cc" stroke-miterlimit="10" fill="none"/><path d="M61.59 116.555L62.137 130" stroke-width="1.2" stroke="#000" stroke-miterlimit="10" fill="none"/><path d="M58.043 96.613h7v13h-7zm0 0" fill="#fff"/><use xlink:href="#a" x="58.043" y="106.515" fill="#3cc"/><path d="M62.137 130l.55 13.445" stroke-width="1.2" stroke="#000" stroke-miterlimit="10" fill="none"/><path d="M62.688 143.445l.546 13.442" stroke-width="1.2" stroke="#3cc" stroke-miterlimit="10" fill="none"/><path d="M62.137 130l-13.442.547" stroke-width="1.2" stroke="#000" stroke-miterlimit="10" fill="none"/><path d="M48.695 130.547l-13.445.547" stroke-width="1.2" stroke="#3cc" stroke-miterlimit="10" fill="none"/><path d="M62.137 130l26.89-1.094" stroke-width="1.2" stroke="#000" stroke-miterlimit="10" fill="none"/><path d="M60.234 150.387h7v13h-7zm0 0" fill="#fff"/><use xlink:href="#a" x="60.234" y="160.288" fill="#3cc"/><path d="M28.25 124.594h7v13h-7zm0 0" fill="#fff"/><use xlink:href="#a" x="28.25" y="134.495" fill="#3cc"/><path d="M89.027 128.906l7.196 11.367" stroke-width="1.2" stroke="#000" stroke-miterlimit="10" fill="none"/><path d="M96.223 140.273l7.195 11.372" stroke-width="1.2" stroke="#00f" stroke-miterlimit="10" fill="none"/><path d="M95.816 127.793l5.758 9.094" stroke-width="1.2" stroke="#000" stroke-miterlimit="10" fill="none"/><path d="M101.574 136.887l5.758 9.097M101.523 105.07l-6.25 11.918" stroke-width="1.2" stroke="#00f" stroke-miterlimit="10" fill="none"/><path d="M95.273 116.988l-6.246 11.918" stroke-width="1.2" stroke="#000" stroke-miterlimit="10" fill="none"/><path d="M103.418 151.645l13.445-.55" stroke-width="1.2" stroke="#00f" stroke-miterlimit="10" fill="none"/><path d="M116.863 151.094l13.446-.547" stroke-width="1.2" stroke="#000" stroke-miterlimit="10" fill="none"/><path d="M99.418 145.145h8v13h-8zm0 0" fill="#fff"/><use xlink:href="#b" x="99.418" y="155.046" fill="#00f"/><path d="M130.31 150.547l7.194 11.37" stroke-width="1.2" stroke="#000" stroke-miterlimit="10" fill="none"/><path d="M137.504 161.918l7.195 11.367" stroke-width="1.2" stroke="#00f" stroke-miterlimit="10" fill="none"/><path d="M130.31 150.547l12.495-23.832M125.95 145.223l9.995-19.067" stroke-width="1.2" stroke="#000" stroke-miterlimit="10" fill="none"/><path d="M144.7 173.285l-6.247 11.918" stroke-width="1.2" stroke="#00f" stroke-miterlimit="10" fill="none"/><path d="M138.453 185.203l-6.246 11.918" stroke-width="1.2" stroke="#000" stroke-miterlimit="10" fill="none"/><path d="M136.7 166.785h17v13h-17zm0 0" fill="#fff"/><g fill="#00f"><use xlink:href="#b" x="136.699" y="176.687"/><use xlink:href="#c" x="144.683" y="176.687"/></g><path d="M132.207 197.12l-12.496 23.833M132.207 197.12l23.832 12.497M132.207 197.12l-23.836-12.495M142.805 126.715l26.886-1.098M128.41 103.977l14.395 22.738M169.69 125.617l12.498-23.832M165.332 120.297l9.996-19.07M182.188 101.785l13.445-.547" stroke-width="1.2" stroke="#000" stroke-miterlimit="10" fill="none"/><path d="M195.633 101.238l13.44-.55" stroke-width="1.2" stroke="#00f" stroke-miterlimit="10" fill="none"/><path d="M182.188 101.785l-14.395-22.738" stroke-width="1.2" stroke="#000" stroke-miterlimit="10" fill="none"/><path d="M209.074 100.688l7.2 11.37" stroke-width="1.2" stroke="#00f" stroke-miterlimit="10" fill="none"/><path d="M216.273 112.06l7.196 11.366" stroke-width="1.2" stroke="#000" stroke-miterlimit="10" fill="none"/><path d="M201.074 94.188h17v13h-17zm0 0" fill="#fff"/><g fill="#00f"><use xlink:href="#b" x="201.074" y="104.089"/><use xlink:href="#c" x="209.058" y="104.089"/></g><path d="M223.47 123.426l-12.497 23.836M227.828 128.75l-9.996 19.066M250.355 122.332l-26.886 1.094M210.973 147.262L225.367 170M225.367 170l26.887-1.094M227.797 163.563l21.512-.875M252.254 168.906l12.496-23.836M264.75 145.07l-14.395-22.738M257.96 146.184l-11.515-18.192M167.793 79.047l-26.887 1.094M165.363 85.484l-21.51.875M140.906 80.14l-12.496 23.837M128.41 103.977l-13.445.546" stroke-width="1.2" stroke="#000" stroke-miterlimit="10" fill="none"/><path d="M114.965 104.523l-13.442.547" stroke-width="1.2" stroke="#00f" stroke-miterlimit="10" fill="none"/><path d="M125.98 110.41l-10.757.442" stroke-width="1.2" stroke="#000" stroke-miterlimit="10" fill="none"/><path d="M115.223 110.852l-10.754.437" stroke-width="1.2" stroke="#00f" stroke-miterlimit="10" fill="none"/><path d="M97.523 98.57h8v13h-8zm0 0" fill="#fff"/><use xlink:href="#b" x="97.523" y="108.472" fill="#00f"/></g></svg>
